!!!ONB: MCCC : IJH0456_02 : Extracted Monophonic Melody
!!!COM: Haydn, Joseph
!!!OPR: String Quartet in F minor
!!!OMV: 2
!!!SCT: Hob.III:35 ; Op.20 No.5
!!!ODT: 1772///
**kern
*thru
*k[b-e-a-d-]
*f:
*clefG
*M3/4
2.cc[
=1
4cc]
4b-
4g
=2
4f
4ff
4ff
=3
2ff
4ee
=4
2cc
8dd-
8cc
=5
4cc
4cc
4cc
=6
2cc
8dd-
8cc
=7
4ff
4b-
4a-[
=8
4a-]
4g
4f
=9
2e-
4d
=10
4e-
4d
4e-
=11
2.d-
=12
4c
4ee-
4ee-
=13
4r
4dd-
8b-
8g
=14
4a-
4ee-
4ee-
=15
4r
4dd-
8b-
8g
=16
4a-
4cc
4cc
=17
4r
4cc
4cc
=18
2.cc[
=19
4cc]
4dd-
4b-
=20
4r
4a
8cc
8b-
=21
2b-
8ff
8dd-
=22
2cc
8b
8cc
=23
2.cc[
=24
2cc]
4ff
=25
4ee
4cc
4cc
=26
2cc
4ff
=27
4ee
4cc
4cc
=28
4r
4cc
4cc
=29
2.cc[
=30
4cc]
4b-
4g
=31
4f
4ff
4ff
=32
2ff
4ee
=33
4f
4aa-
4aa-
=34
2aa-
4gg
=35
2cc
8dd-
8cc
=36
4cc
4cc
4cc
=37
2cc
8dd-
8cc
=38
4cc
4cc
4cc
=39
2cc
8bb-
8aa-
=40
4aa-
4ff
4dd-
=41
2cc
8ee-
8dd-
=42
2dd-
8ff
8ee
=43
4ee
4cc
4b
=44
4cc
4b
4cc
=45
2.b-
=46
2.ee
=47
4ff
4aa-
4aa-
=48
4r
4gg
8bb-
8ee
=49
4ff
4aa-
4aa-
=50
4r
4gg
8bb-
8ee
=51
4ff
4cc
4cc
=52
4r
4e
4e
=53
4f
2r
=54
*F:
2.f
=55
2e
4d
=56
2c
4d
=57
2c
4B-
=58
4A
4r
8a
8b-
=59
8b
8cc
8dd
8cc
8b
8cc
=60
4g
4g
8a
8b-
=61
8b
8cc
8dd
8cc
8b
8cc
=62
4f
4f
8dd
8cc
=63
4e
4e
8ee
8ff
=64
8ff#
8gg
8aa
8gg
8ff#
8gg
=65
4ddd
4ff
4ee
=66
4dd
4r
8cc#
8dd
=67
8cc#
8dd
8ee
8dd
8ff
8dd
=68
4a
4r
4f
=69
4e
2r
=70
2.cc
=71
2dd
4ee
=72
4ff
4cc
8a
8f
=73
4c
4cc
4ee
=74
4ff
4cc
8a
8f
=75
4c
4cc
4ee
=76
4ff
4cc
8a
8f
=77
4c
2r
=78
2.f
=79
2e
4d
=80
2c
4d
=81
2c
4B-
=82
4A
4r
8dd
8ee-
=83
8ee
8ff
8gg
8ff
8ee
8ff
=84
4dd
4dd
8dd
8ee-
=85
8ee
8ff
8gg
8ff
8ee
8ff
=86
4cc
4cc
8gg
8ff
=87
4b-
4b-
8gg
8ff
=88
4a
4a
8aa
8bb-
=89
8bb
8ccc
8ddd
8ccc
8bb
8ccc
=90
4bb-
8.bb-
16gg
8.aa
16ff
=91
4gg
4r
8ff#
8gg
=92
8ff#
8gg
8bb-
8gg
8ee
8gg
=93
4ff
2r
=94
2.r
=95
2.ff
=96
2.bb-
=97
8bb-
8gg
8ee
8cc
8b-
8a
=98
8cc#
8dd
8b-
8g
8e
8c
=99
4f
2r
==
*-
